X:1
T:Si dolci son li strai
T:Luca Marenzio
T:Source : Il quinto libro delle Villanelle a tre voci---Venetia---Herede di G.Scotto---1587. Editor : André Vierendeels (04/06/17).
T:Notes : Original clefs : C1, C2, F4 Editorial accidentals above the staff Music collected by Attilio Gualtieri 
T:Si dolci son li strai
T:©
T:©
C:Luca Marenzio
Z:©
%%score [ 1 2 3 ]
L:1/8
Q:1/4=120
M:4/4
K:C
V:1 treble nm="Soprano 1" snm="S 1"
V:2 treble nm="Soprano 2" snm="S 2"
V:3 bass nm="Bass" snm="B"
V:1
"^1)" G8 | ^G6 G2 | ^G4 A4 | B4 c4 | BAGF E2 e2 | e2 dc d4 | c8 :: e2 dc d2 B2 | edcB A2 A2 | %9
w: Si|dol- ci|son li|strai le|fiam- * * * * m'e'l|lac- * * *|cio,|con che mi fe- re'ac-|cen- * * * * d'e|
w: Ma|non è|fo- co'il|fo- c'o|ar- * * * * dor|la'ar- * * do-|re,|ne stral- lo stral o'il|lac- * * * * cio|
 dcBA G2 c2 | BAGA Bc d2- | d2 ^cB c4 | d8 | B2 c4 d2 | e2 c4 A2- | A2 d4 B2- | B2 G4 c2- | %17
w: le- * * * * g'A-|mo- * * * * * *||re,|ch'in pia- ga'in-|cen- d'e le-|* ga'ogn' hor|_ il co-|
w: ond' _ _ _ _ io|m'al- * * * * * *|* * * lac-|cio,|ma duo begl'|oc- chi da'in-|* fiam- mar'|_ un giac-|
 cB BA/G/ A4 | G8 :| %19
w: |re|
w: |cio.|
V:2
"^2)""^1)" D8 | E6 E2 | E4 ^F4 |"^-natural" G6 A2 | G6 c2 | c2 BA B4 | c8 :: c2 BA B2 G2 | %8
w: Si|dol- ci|son li|strai le|fiam- m'el|lac- * * *|cio,|con che mi fe- re'ac-|
w: Che|men- tre'a|ri- ve-|der- li'a-|mor mi|me- * * *|na,|mi fe- re'ar- d'e an-|
 GFED C2 C2 | FEDC B,2 E2 | DCB,C DEFD | EF G4 ^FE | ^F8 | G2 A4 B2 | c2 G2 A4 | F4 D4 | G4 EFGE | %17
w: cen- * * * * d'e|le- * * * * g'A-|mo- * * * * * * *||re,|ch'in pia- ga'in-|cen- d'e le-|ga'ogn' hor|il co- * * *|
w: no- * * * * da'e|poi _ _ _ _ le|pin- * * * * * * *||ge,|di pie- tà|vi- va'e con|quel- la|mi strin- * * *|
 ^F2 G4 F2 | G8 :| %19
w: |re.|
w: |ge.|
V:3
"^3)""^1)""^4)" G,8 | E,6 E,2 | E,4 D,4 |"^-natural" G,F,E,D, C,2 A,,2 | E,4 C,4 | G,,8 | C,8 :: %7
w: Si|dol- ci|son li|strai _ _ _ _ le|fiam- m'el|lac-|cio,|
w: Ac|cio che'l|dar- do|fa- * * * * c'e|la ca-|te-|na,|
 C,4 G,4 | E,4 F,4 | D,4 E,3 F, | G,6 F,2 | E,8 | D,8 |"^-natural" G,2 F,4 D,2 | C,4 A,,4 | %15
w: con che|mi fe-|re'ac- cen- de|le- g'A-|mo-|re,|ch'in pia- ga'in-|cen- de|
w: m'in- pia-|gh'in- fiam-|mi'e stru- ga|con tai|mo-|di,|ch'io non sen-|ta le|
 D,4 B,,4 | G,,4 C,4 | D,8 | G,,8 :| %19
w: le ga'ogn'|hor il|co-|re.|
w: pun- te'il|cal- do'e'i|no-|di.|

